X:58
T:Black Jack
C:English traditional
S:Colin Hume's website,  colinhume.com  - chords can also be printed below the stave.
Q:3/8=110
M:6/8
K:G
P:A
|: D | "G"D2G "Em"GFG | "Am"ABA "D7"AGA | "G"BcB "Em"BAG | "Am"AcB "D7"AGF | "G"G2B "C"E2G | "D7"DEF "G"G2 :|
P:B
G | "G"B2d dcB | "C"cde "D7"d2c | "G"B2d dcB | "C"cde "D7"d2c | "Em"B2B BAG |
"Am"ABA "D7"AGA | "G"BcB "Em"BAG | "Am"AcB "D7"AGF | "G"G2B "C"E2G | "D7"DEF "G"G2 |]

